X:1
T:C Major           Timothy Olmsted, 1794
T:Isaac Watts, 1717 (Psalm 136, Part 3)       88. 88. (L. M.)
T:Wethersfield
T:Transcribed from Andrew Law's Christian Harmony, 1794.
%%score [ 1 2 3 4 ]
L:1/8
Q:1/4=150
M:4/4
K:C
V:1 treble nm="Tr." snm="Tr."
V:2 treble nm="C." snm="C."
V:3 treble-8 nm="T." snm="T."
V:4 bass nm="B." snm="B."
V:1
"^1. Give         to  our  God  immortal  praise;    Mercy and truth  are   all      his  ways:                             Wonders of grace            to  God    be  –\n2.  He     sent his Son with power to save   From guilt, and darkness, and the grave;                             Wonders of grace            to  God    be  –" E4 | %1
 E4 G4 | c4 (c2 d2) | (e3 f) d4 | c6 z2 | G4 G2 G2 | (A2 B2) c4 | (G2 f2) e4 | d6 z2 | z8 | %10
 (c2 B2) A2 G2 | F6 d2 | (B2 A2) (G2 F2) | %13
"^1. –long,  Repeat his mercies in your song.                                                                                                                                                                    Give to the\n2. –long,  Repeat his mercies in your song.                                                                                                                                                              Thro' this vain" E6 c2 | %14
 A2 G2 F2 D2 | (E2 G2) (c2 B2) | c6 z2 | z8 | z8 | z8 | z8 | z8 | z8 | z8 | z8 | B4 B2 B2 | %26
 (B2 c2) (d2 e2) | d4 d4 | c8 | G4 G2 G2 | (A2 Bc) (G2 F2) | E4 E4 | F6 A2 | B4 G4 | %34
 (d2 cB) (A2 G2) | c4 (A3 G) | G6 z2 | z8 | z8 | z8 | %40
 z4 z2"^1. His mercies ever shall  en–dure,           When lords  and  kings  are       known  no     more.\n2. His mercies ever shall  en–dure,           When  this vain world  shall      be          no     more." G2 | %41
 E2 E2 F2 F2 | G4 A4 | ^G8 | z4 B4 | c4 c4 | B4 A4 | (G2 B2) (c2 A2) | B6 z2 | z8 | z8 | z8 | %52
 z4 z2 c2 | (c6 d2 | e2 f2) (e2 d2) | (c2 B2 A2 G2 | F2 E2) (A2 G2) | d4 (d3 e/f/) | e8 |] %59
V:2
"^1. Give         to  our  God  immortal  praise;    Mercy and truth  are   all      his   ways:     Wonders  of  grace      to    God   be   –  long,        Re –\n2.  He     sent his Son with power to save   From guilt, and darkness, and the  grave;     Wonders  of  grace      to    God   be   –  long,        Re –" G4 | %1
 G4 E4 | c4 (A2 G2) | (F2 D2) G4 | E6 z2 | E4 E2 E2 | F4 (E2 A2) | _B4 A4 | A6 z2 | %9
 (c2 B2) A2 ^G2 | A6 c2 | (B2 A2) (G2 ^F2) | G6 G2 | %13
"^1. –peat  his  mer –  cies  in    your    song.    Wonders of grace  to    God    be   –   long,    Re  –  peat  his mer–cies  in   your   song.    Give to the\n2. –peat  his  mer –  cies  in    your    song.    Wonders of grace  to    God     be   –  long,    Re  –  peat  his mer–cies   in   your  song. Thro' this vain" (A2 G2 F2) E2 | %14
 (F2 E2 D2) B2 | c4 G4 | E6 z2 | (B2 c2) d2 B2 | (G2 E2) (c2 A2) | D4 (G2 ^F2) | G4 B4 | c4 e4 | %22
 G4 c4 | (d2 c2) (B2 A2) | B6 z2 | d4 d2 d2 | %26
"^1. Lord   of  lords  re–nown, The King of kings with glo–ry crown, The King of  kings     with          glo – ry      crown:\n2. world he  guides  our feet, And leads us to       his   hea–v'nly seat,  And leads us to            his            hea–v'nly   seat:" (B2 AG) (F2 E2) | %27
 D4 D4 | E8 | E4 E2 E2 | (E2 G2) (c2 d2) | c4 G4 | A6 c2 | B4 B4 | (B2 c2) (d2 cB) | A4 A4 | %36
 B6 z2 | z8 | z8 | %39
 z4 z2"^1. His  mer – cies     ev   –   er         shall   en–dure,          When lords and kings  are       known  no     more. When lords  and  kings  are \n2. His  mer – cies     ev   –   er          shall  en–dure,          When  this vain world  shall    be          no     more.  When this vain world  shall" A2 | %40
 (e2 d2) (c2 B2) | c4 (B2 A2) | E4 F4 | E8 | z4 E4 | E4 c4 | (B d3) (e c3) | B4 A4 | G6 G2 | %49
 G4 G4 | (d B3) (c A3) | %51
"^1. known no more. When lords _______  and     kings ________  are        known   no      more.\n2.  be         no more.  When this ________ vain    world _______  shall       be            no     more." E4 D4 | %52
 C6 G2 | (E2 c2 e2 d2 | c2 G2) (E2 G2) | (F2 D2 E2 G2 | A2 B2) c4 | (F2 D2) G4 | G8 |] %59
V:3
"^1. Give         to  our  God  immortal  praise;    Mercy and truth  are   all      his  ways:      Wonders  of  grace        to   God   be   –  long,        Re–\n2.  He     sent his Son with power to save   From guilt, and darkness, and the grave;      Wonders  of  grace        to   God   be   –  long,        Re–" (G3 A/B/) | %1
 c4 G4 | G4 (A2 B2) | (c3 d) B4 | c6 z2 | c4 e2 c2 | (d2 B2) (c2 A2) | d4 ^c4 | d6 z2 | %9
 (e2 d2) c2 B2 | c6 e2 | (d2 c2) (B2 A2) | B6 d2 | (c2 B2 A2) G2 | (A2 B2 c2) f2 | e4 d4 | c6 z2 | %17
 (G2 A2 B2) G2 | c4 (e2 c2) | (A2 B2) (c2 A2) | (d2 e2) (^f2 d2) | g4 c4 | B4 (A2 G2) | %23
 (B2 A2) (G2 ^F2) | G6 z2 | G4 G2 G2 | (G2 A2) (B2 c2) | d4 F4 | E8 | c4 c2 c2 | (c2 d2) (e2 f2) | %31
 g4 _B4 | A6 A2 | d4 d4 | (d2 e2) (f2 g2) | a4 c4 | %36
 B6"^1. His mer – cies  ev  –  er\n2. His mer – cies  ev  –  er" G2 | (e2 d2) (c2 B2) | %38
 c4 (B2 A2) | %39
"^1. shall  en  –  dure,      His  mercies  ever  shall  en – dure,        When lords and  kings  are        known  no     more.\n2. shall  en  –  dure,      His  mercies  ever  shall  en – dure,        When  this vain world  shall      be          no     more." e4 f4 | %40
 e6 d2 | c2 e2 d2 c2 | B4 A4 | B8 | z4 G4 | G4 G4 | (d B3) (c A3) | E4 ^F4 | G6 G2 | G4 G4 | %50
 (d B3) (c A3) | E4 D4 | C6 G2 | (E2 c2 e2 d2 | c2 G2) (E2 G2) | (F2 D2 E2 G2 | A2 B2) c4 | %57
 (F2 D2) G4 | G8 |] %59
V:4
 G,4 | E,4 C,4 | C,4 (F,2 E,2) | (A,2 F,2) G,4 | C,6 z2 | C4 C,2 C,2 | F,4 F,4 | G,4 A,4 | D,6 z2 | %9
 z8 | %10
"^1. Wonders of grace         to  God    be –\n2. Wonders of grace         to  God    be –" (A,2 G,2) F,2 E,2 | %11
 F,6 D,2 | (G,2 F,2) (E,2 D,2) | %13
"^1. – long,  Repeat his mercies in your  song.\n2. – long,  Repeat his mercies in your  song." E,6 C,2 | %14
 F,2 G,2 A,2 F,2 | G,4 G,,4 | C,6 z2 | (G,2 F,2) E,2 E,2 | C,4 A,4 | D,4 D,4 | B,,4 G,4 | G,4 A,4 | %22
 B,4 C4 | D4 D,4 | [G,,G,]6 z2 | G,4 G,2 G,2 | %26
"^_______________________________________________\nEdited by B. C. Johnston, 2017\n   1. Top staff, labeled \"Air\" exchanged with third staff (Tenor)." (G,2 F,E,) (D,2 C,2) | %27
 B,,4 G,,4 | C,8 | C,4 C,2 C,2 | (C2 B,A,) (G,2 F,2) | E,4 E,4 | F,6 F,E, | D,4 D,4 | %34
 (D2 CB,) (A,2 G,2) | ^F,4 F,4 | G,6 z2 | z4 z2"^1. His mer–cies\n2. His mer–cies" E,2 | %38
 A,4 (G,2 F,2) | %39
"^1. ev  –  er        shall     en  –    dure,              shall   en–dure,\n2. ev  –  er        shall     en  –    dure,              shall   en–dure," (E,2 C2) (B,2 A,2) | %40
 E,4 E,4 | E,8 | E,4 A,4 | E,8 | z4 G,4 | E,4 C,4 | D,4 ^F,4 | G,4 D,4 | G,,6 z2 | z8 | z8 | z8 | %52
 z4 z2 G,2 | E,8- | E,4 E,4 | F,8- | F,4 F,4 | G,4 G,,4 | C,8 |] %59

